symbolic/64x64/apps/youtube-dl.svg

<svg xmlns="http://www.w3.org/2000/svg" width="64" height="64" version="1">
 <path style="opacity:0.2" d="M 27.395341,52.964049 C 18.139423,52.784535 14.38258,52.626031 12.085292,52.318105 10.400602,52.092281 9.5732583,51.872129 8.6401443,51.401363 7.0989966,50.623849 6.1405286,49.539647 5.4488309,47.791408 4.8164229,46.19307 4.5589209,44.923584 4.3226009,42.239 4.0559149,39.20943 4.035069,38.66097 4.007377,33.94067 3.974757,28.389584 4.040417,26.570543 4.4057469,22.886033 4.5973229,20.954425 4.8765389,19.670709 5.4011889,18.309412 5.8789947,17.069705 6.3152206,16.385525 7.1085586,15.631565 8.1056385,14.683978 9.2006763,14.107939 10.583064,13.80385 12.64644,13.349958 21.972581,13 32.004813,13 c 10.032231,0 19.358373,0.349958 21.421747,0.80385 1.492218,0.328253 2.58741,0.934569 3.655973,2.024002 0.836332,0.852663 1.267084,1.627447 1.779694,3.201193 0.528192,1.621562 0.730758,3.056632 1.03089,7.303322 0.14252,2.016692 0.1425,11.300191 0,13.315891 -0.16676,2.358052 -0.371392,4.457956 -0.507654,5.209342 -0.350308,1.93178 -1.038324,3.740459 -1.814022,4.768813 -0.532195,0.70553 -1.582783,1.546182 -2.461297,1.969458 -0.889574,0.428608 -1.73712,0.641098 -3.103448,0.77811 -4.233894,0.424556 -17.162839,0.734544 -24.611299,0.590068 z"/>
 <path style="fill:#e53935" d="M 27.395341,51.964049 C 18.139423,51.784535 14.38258,51.626031 12.085292,51.318105 10.400602,51.092281 9.5732583,50.872129 8.6401443,50.401363 7.0989966,49.623849 6.1405286,48.539648 5.4488309,46.791408 4.8164229,45.19307 4.5589209,43.923584 4.3226009,41.239 4.0559149,38.20943 4.035069,37.66097 4.007377,32.94067 c -0.03262,-5.551085 0.03304,-7.370127 0.3983699,-11.054637 0.191576,-1.931608 0.470792,-3.215323 0.995442,-4.57662 0.4778058,-1.239707 0.9140317,-1.923887 1.7073697,-2.677847 0.9970799,-0.947588 2.0921177,-1.523626 3.4745054,-1.827715 2.063376,-0.453892 11.389517,-0.80385 21.421749,-0.80385 10.032231,0 19.358373,0.349958 21.421747,0.80385 1.492218,0.328253 2.58741,0.934569 3.655973,2.024002 0.836332,0.852663 1.267084,1.627447 1.779694,3.201192 0.528192,1.621562 0.730758,3.056632 1.03089,7.303322 0.14252,2.016692 0.1425,11.300191 0,13.315891 -0.16676,2.358052 -0.371392,4.457956 -0.507654,5.209342 -0.350308,1.93178 -1.038324,3.74046 -1.814022,4.768814 -0.532195,0.70553 -1.582783,1.546181 -2.461297,1.969457 -0.889574,0.428608 -1.73712,0.641098 -3.103448,0.77811 -4.233894,0.424556 -17.162839,0.734544 -24.611299,0.590068 z"/>
 <path style="opacity:0.2" d="m 33.233163,37.530326 c 7.937213,-4.515902 7.766553,-4.416854 7.766553,-4.507516 0,-0.08484 -13.892995,-8.068501 -13.960737,-8.022557 -0.04576,0.03106 -0.05426,15.935265 -0.0092,15.985451 0.017,0.0184 0.06502,0.0192 0.10682,0.0015 0.04182,-0.0178 2.785048,-1.573296 6.095916,-3.457018 z"/>
 <path style="fill:#ffffff" d="m 33.233163,36.530296 c 7.937213,-4.515902 7.766553,-4.416854 7.766553,-4.507516 0,-0.08484 -13.892995,-8.068501 -13.960737,-8.022557 -0.04576,0.03106 -0.05426,15.935265 -0.0092,15.985451 0.017,0.0184 0.06502,0.0192 0.10682,0.0015 0.04182,-0.0178 2.785048,-1.573296 6.095916,-3.457018 z"/>
 <path style="opacity:0.2;fill:#ffffff" d="M 32.003906,12 C 21.971674,12 12.645407,12.350794 10.582031,12.804688 9.1996434,13.108776 8.1064549,13.685225 7.109375,14.632812 6.316037,15.386772 5.8801496,16.068887 5.4023438,17.308594 4.8776937,18.669891 4.597826,19.955112 4.40625,21.886719 4.1072341,24.902423 4.0138108,26.777787 4.0058594,30.363281 4.0282027,27.356268 4.1331855,25.640692 4.40625,22.886719 4.597826,20.955112 4.8776937,19.669891 5.4023438,18.308594 5.8801496,17.068887 6.316037,16.386772 7.109375,15.632812 8.1064549,14.685225 9.1996434,14.108776 10.582031,13.804688 12.645407,13.350795 21.971674,13 32.003906,13 c 10.032231,0 19.358501,0.350794 21.421875,0.804688 1.492218,0.328253 2.587687,0.934004 3.65625,2.023437 0.836332,0.852663 1.26864,1.625473 1.78125,3.199219 0.528192,1.621561 0.731118,3.057997 1.03125,7.304687 0.06958,0.983616 0.08748,3.567048 0.08594,6.263672 6.11e-4,0.138255 0.0034,0.258386 0.0039,0.396485 0.0124,-3.202115 -0.0078,-6.500323 -0.08984,-7.660157 -0.300132,-4.24669 -0.503058,-5.683126 -1.03125,-7.304687 -0.51261,-1.573746 -0.944918,-2.346556 -1.78125,-3.199219 -1.068563,-1.089433 -2.164032,-1.695184 -3.65625,-2.023437 C 51.362407,12.350795 42.036137,12 32.003906,12 Z"/>
 <g>
  <path style="opacity:0.2" d="M 63.958,45.894 A 15,15 0 0 1 49,60 15,15 0 0 1 34.042,46.106 15,15 0 0 0 34,47 15,15 0 0 0 49,62 15,15 0 0 0 64,47 15,15 0 0 0 63.958,45.894 Z"/>
  <circle style="fill:#03a9f4" cx="49" cy="46" r="15"/>
  <path style="fill:#ffffff" d="m 52,37 v 8 h 3 l -6,8 -6,-8 h 3 V 37 Z M 42,53.0004 h 14 v 2 H 42 Z"/>
 </g>
</svg>

<svg xmlns="http://www.w3.org/2000/svg" width="64" height="64" version="1"><path style="opacity:.2" d="M27.395 52.964c-9.256-.18-13.012-.338-15.31-.646-1.684-.226-2.512-.446-3.445-.917-1.541-.777-2.5-1.861-3.191-3.61-.633-1.598-.89-2.867-1.126-5.552-.267-3.03-.288-3.578-.316-8.298-.032-5.551.033-7.37.399-11.055.191-1.932.47-3.215.995-4.577.478-1.24.914-1.923 1.708-2.677.997-.948 2.092-1.524 3.474-1.828C12.646 13.35 21.973 13 32.005 13s19.358.35 21.422.804c1.492.328 2.587.934 3.656 2.024.836.853 1.267 1.627 1.78 3.201.527 1.622.73 3.057 1.03 7.303.143 2.017.143 11.3 0 13.316-.167 2.358-.371 4.458-.508 5.21-.35 1.931-1.038 3.74-1.814 4.768-.532.706-1.582 1.547-2.46 1.97-.89.428-1.738.641-3.104.778-4.234.425-17.163.735-24.612.59z"/><path style="fill:#e53935" d="M27.395 51.964c-9.256-.18-13.012-.338-15.31-.646-1.684-.226-2.512-.446-3.445-.917-1.541-.777-2.5-1.861-3.191-3.61-.633-1.598-.89-2.867-1.126-5.552-.267-3.03-.288-3.578-.316-8.298-.032-5.551.033-7.37.399-11.055.191-1.932.47-3.215.995-4.577.478-1.24.914-1.923 1.708-2.677.997-.948 2.092-1.524 3.474-1.828C12.646 12.35 21.973 12 32.005 12s19.358.35 21.422.804c1.492.328 2.587.934 3.656 2.024.836.853 1.267 1.627 1.78 3.201.527 1.622.73 3.057 1.03 7.303.143 2.017.143 11.3 0 13.316-.167 2.358-.371 4.458-.508 5.21-.35 1.931-1.038 3.74-1.814 4.768-.532.706-1.582 1.547-2.46 1.97-.89.428-1.738.641-3.104.778-4.234.425-17.163.735-24.612.59z"/><path style="opacity:.2" d="M33.233 37.53C41.17 33.014 41 33.113 41 33.023c0-.085-13.893-8.069-13.961-8.023-.046.031-.054 15.936-.01 15.986.018.018.066.019.108.001.041-.018 2.785-1.573 6.096-3.457z"/><path style="fill:#fff" d="M33.233 36.53C41.17 32.014 41 32.113 41 32.023c0-.085-13.893-8.069-13.961-8.023-.046.031-.054 15.935-.01 15.986.018.018.066.019.108.001.041-.018 2.785-1.573 6.096-3.457z"/><path style="opacity:.2;fill:#fff" d="M32.004 12c-10.032 0-19.359.35-21.422.805-1.382.304-2.476.88-3.473 1.828-.793.754-1.229 1.436-1.707 2.676-.524 1.36-.804 2.646-.996 4.578-.299 3.015-.392 4.89-.4 8.476.022-3.007.127-4.722.4-7.476.192-1.932.472-3.217.996-4.578.478-1.24.914-1.922 1.707-2.676.997-.948 2.09-1.524 3.473-1.828C12.645 13.35 21.972 13 32.004 13s19.358.35 21.422.805c1.492.328 2.587.934 3.656 2.023.836.853 1.269 1.626 1.781 3.2.528 1.62.731 3.057 1.032 7.304.07.984.087 3.567.085 6.264.001.138.004.258.004.396.013-3.202-.007-6.5-.09-7.66-.3-4.247-.503-5.683-1.03-7.305-.513-1.573-.946-2.346-1.782-3.199-1.069-1.09-2.164-1.695-3.656-2.023C51.362 12.35 42.036 12 32.004 12z"/><path style="opacity:.2" d="M63.958 45.894A15 15 0 0 1 49 60a15 15 0 0 1-14.958-13.894A15 15 0 0 0 34 47a15 15 0 0 0 15 15 15 15 0 0 0 15-15 15 15 0 0 0-.042-1.106z"/><circle style="fill:#03a9f4" cx="49" cy="46" r="15"/><path style="fill:#fff" d="M52 37v8h3l-6 8-6-8h3v-8zM42 53h14v2H42z"/></svg>
